z_dist/img/bg/bp1024/dark-about-footer-wave.svg

<svg width="1024" height="325" viewBox="0 0 1024 325" fill="none" xmlns="http://www.w3.org/2000/svg">
<path fill-rule="evenodd" clip-rule="evenodd" d="M42.6667 56.6861C1.725 71.4827 0 76.0367 0 76.0367V158V325H1024V158V79.4474L981.333 74.3245C962.337 72.0436 936.151 67.2916 904.847 61.6108C865.841 54.5325 818.89 46.0122 768 39.0335C744.632 35.829 722.614 30.4878 699.585 24.9015C685.497 21.4839 671.03 17.9745 655.644 14.8065C620.733 5.59739 584.412 4.31666 548.204 3.03992C536.104 2.61327 524.017 2.18708 512 1.46563C426.667 -3.65726 347.378 5.18297 256 19.682C229.097 23.9507 203.093 27.6308 178.745 31.0765C120.393 39.3344 71.5546 46.2458 42.6667 56.6861Z" fill="#141414"/>
</svg>

<svg width="1024" height="325" fill="none" xmlns="http://www.w3.org/2000/svg"><path fill-rule="evenodd" clip-rule="evenodd" d="M42.667 56.686C1.725 71.483 0 76.036 0 76.036V325h1024V79.447l-42.667-5.123c-18.996-2.28-45.182-7.032-76.486-12.713C865.841 54.533 818.89 46.012 768 39.033c-23.368-3.204-45.386-8.545-68.415-14.132-14.088-3.417-28.555-6.927-43.941-10.095-34.911-9.209-71.232-10.49-107.44-11.766-12.1-.427-24.187-.853-36.204-1.574-85.333-5.123-164.622 3.717-256 18.216-26.903 4.269-52.907 7.949-77.255 11.395-58.352 8.257-107.19 15.169-136.078 25.61z" fill="#141414"/></svg>
